content/1_docs/2_cookbook/cookbook.svg

<svg height="16" viewBox="0 0 16 16" width="16" xmlns="http://www.w3.org/2000/svg"><g fill="#111"><path d="m15 11h-14a1 1 0 0 0 0 2h.25l.371 1.485a2 2 0 0 0 1.941 1.515h8.876a2 2 0 0 0 1.941-1.515l.371-1.485h.25a1 1 0 0 0 0-2z" fill="#111"/><path d="m2 9.667a1 1 0 0 0 1-1c0-.903 1.069-1.667 2.333-1.667a2.931 2.931 0 0 1 1.315.312 3.167 3.167 0 0 0 -.315 1.355 1 1 0 0 0 2 0c0-.903 1.067-1.667 2.334-1.667s2.333.764 2.333 1.667a1 1 0 1 0 2 0 3.708 3.708 0 0 0 -2.6-3.357l2.088-3.446c.018-.028.034-.058.049-.087a1.227 1.227 0 0 0 -.549-1.646c-.03-.016-.061-.031-.088-.042a1.225 1.225 0 0 0 -1.6.68l-1.7 4.236a4.8 4.8 0 0 0 -2.584.78 4.842 4.842 0 0 0 -2.683-.785c-2.389 0-4.333 1.645-4.333 3.667a1 1 0 0 0 1 1z"/><path d="m8 3.333v-1.333a2 2 0 0 0 -2-2v1.333a2 2 0 0 0 2 2z" fill="#111"/></g></svg>

<svg height="16" width="16" xmlns="http://www.w3.org/2000/svg"><g fill="#111"><path d="M15 11H1a1 1 0 000 2h.25l.371 1.485A2 2 0 003.562 16h8.876a2 2 0 001.941-1.515L14.75 13H15a1 1 0 000-2zM2 9.667a1 1 0 001-1C3 7.764 4.069 7 5.333 7a2.931 2.931 0 011.315.312 3.167 3.167 0 00-.315 1.355 1 1 0 002 0C8.333 7.764 9.4 7 10.667 7S13 7.764 13 8.667a1 1 0 102 0 3.708 3.708 0 00-2.6-3.357l2.088-3.446c.018-.028.034-.058.049-.087a1.227 1.227 0 00-.549-1.646.983.983 0 00-.088-.042 1.225 1.225 0 00-1.6.68l-1.7 4.236a4.8 4.8 0 00-2.584.78A4.842 4.842 0 005.333 5C2.944 5 1 6.645 1 8.667a1 1 0 001 1z"/><path d="M8 3.333V2a2 2 0 00-2-2v1.333a2 2 0 002 2z"/></g></svg>
